X:25
T: Zwei Wasser. (Schwimmersage)
N: A0024C
O: Europa, Mitteleuropa, Deutschland
N: Mel. bei Rhaw, Bicinia II. 1545 No. 19.- Fuer Laute gesetzt und
N: etwas verzerrt steht die Melodie schon in Hans Judenkunigs
N: Lautenbuch, Wien 1523. Entzifferung s. Ambros, Gesch. d. Musik II,
N: 282.
R: Romanze, Ballade, Lied
M: 3/1
L: 1/2
K: G
G2 | G3A_B2 | A4G2 | A3_Bc2 | d4
d2 | c4A2 | _B2G4 | =F6 | z4
=F2 | A4_B2 | c4_B2 | G3A_B2 | A4
G2 | =F2D2F2 | G2A4 | G4

